www/assets/icons/bike_scooter.svg

<svg xmlns="http://www.w3.org/2000/svg" width="24" height="24" viewBox="0 0 24 24" fill='currentColor'><path d="M10 14h.74L8.82 5.56A2.01 2.01 0 0 0 6.87 4H3v2h3.87l1.42 6.25h-.01A6.01 6.01 0 0 0 4.09 17H0v2h6v-1c0-2.21 1.79-4 4-4m9-6h-.82l-1.35-3.69A1.98 1.98 0 0 0 14.96 3H11v2h3.96l1.1 3H10.4l.46 2H15c-.43.58-.75 1.25-.9 2h-2.79l.46 2h2.33c.44 2.23 2.31 3.88 4.65 3.99 2.8.13 5.25-2.19 5.25-5C24 10.2 21.8 8 19 8m0 8c-1.68 0-3-1.32-3-3 0-.93.41-1.73 1.05-2.28l.96 2.64 1.88-.68-.97-2.67c.03 0 .06-.01.09-.01 1.68 0 3 1.32 3 3s-1.33 3-3.01 3"/><path d="M10 15c-1.66 0-3 1.34-3 3s1.34 3 3 3 3-1.34 3-3-1.34-3-3-3m0 4c-.55 0-1-.45-1-1s.45-1 1-1 1 .45 1 1-.45 1-1 1"/></svg>

<svg width="24" height="24" viewBox="0 0 24 24" xmlns="http://www.w3.org/2000/svg" fill='currentColor'><path d="M10 14H10.74L8.82 5.56C8.61 4.65 7.8 4 6.87 4H3V6H6.87L8.29 12.25H8.28C6.12 12.9 4.47 14.73 4.09 17H0V19H6V18C6 15.79 7.79 14 10 14Z"/><path d="M19 8H18.18L16.83 4.31C16.55 3.52 15.8 3 14.96 3H11V5H14.96L16.06 8H10.4L10.86 10H15C14.57 10.58 14.25 11.25 14.1 12H11.31L11.77 14H14.1C14.54 16.23 16.41 17.88 18.75 17.99C21.55 18.12 24 15.8 24 12.99C24 10.2 21.8 8 19 8ZM19 16C17.32 16 16 14.68 16 13C16 12.07 16.41 11.27 17.05 10.72L18.01 13.36L19.89 12.68L18.92 10.01C18.95 10.01 18.98 10 19.01 10C20.69 10 22.01 11.32 22.01 13C22.01 14.68 20.68 16 19 16Z"/><path d="M10 15C8.34 15 7 16.34 7 18C7 19.66 8.34 21 10 21C11.66 21 13 19.66 13 18C13 16.34 11.66 15 10 15ZM10 19C9.45 19 9 18.55 9 18C9 17.45 9.45 17 10 17C10.55 17 11 17.45 11 18C11 18.55 10.55 19 10 19Z"/></svg>
